X:1
T:Tantum ergo - Tartini
T:#
%%score { 1 | 2 } 3
L:1/8
Q:1/4=90
M:2/2
K:C
V:1 treble nm="Soprano I" snm="S"
V:2 treble 
V:3 treble nm="Alto" snm="A"
V:1
"^Tantum ergo""^Giuseppe Tartini\n(1692-1770)""^grave"!p! A4 A4 | f4 e4 | d4 d4 | d8 |"^," ^c8 | %5
w: Tan- tum|er- go|Sa- cra-|men-|tum|
w: Ge- ni-|to- ri,|Ge- ni-|to-|que|
 =c4 f4 | d4 _B4 | A6 G2 |"^," A8 |[M:2/2] c4 f4 | d4 c4 | _B4 A4 | (_B2 c2)"^," d4 | %13
w: ve- ne-|re- mur|cer- nu-|i:|et an-|ti- quum|do- cu-|men\- * tum|
w: laus et|ju- bi-|la- ti-|o,|sa- lus,|ho- nor,|vir- tus|quo\- * que|
!<(! d4 ^c4!<)! | (d2 e2) f4 | (f4!>(! e4 | d6)!>)! d2 | c8 | c4 c4 | d4 A4 | c4 c4 | c4 _B4 | %22
w: no- vo|ce\- * dat|ri\- *|* tu-|i:|prae- stet|fi- des|sup- ple-|men- tum|
w: sit et|be\- * ne-|di\- *|* cti-|o:|pro- ce-|den- ti|ab u-|tro- que|
 d4 ^c4 | (d2 e2) (f2 g2) | e6 e2 | !fermata!d8 :| d8 | !fermata!d8 |] %28
w: sen- su-|um * de\- *|fe- ctu-|i.|A-|men.|
w: com- par|sit * lau\- *|da- ti-|o.|||
V:2
!p! F4 (F2 G2) | (A2 B2) c4 | A4 A4 | _B8 |"^," A8 | A4 A4 | _B4 F4 | F6 E2 |"^," F8 | %9
w: Tan- tum *|er\- * go|Sa- cra-|men-|tum|ve- ne-|re- mur|cer- nu-|i:|
w: Ge- ni\- *|to\- * ri,|Ge- ni-|to-|que|laus et|ju- bi-|la- ti-|o,|
[M:2/2] A4 A4 | _B4 A4 | G4 ^F4 | (G2 A2)"^," _B4 |!<(! _B4 A4!<)! | A4 A4 | (B4 c4- | c4) B4 | %17
w: et an-|ti- quum|do- cu-|men\- * tum|no- vo|ce- dat|ri\- *|* tu-|
w: sa- lus,|ho- nor,|vir- tus|quo\- * que|sit et|be- ne-|di\- *|* cti-|
 c8 | A4 A4 | A4 F4 | G4 A4 | G4 D4 | _B4 A4 | A4 d4 | d4 ^c4 | !fermata!d8 :| _B8 | !fermata!A8 |] %28
w: i:|prae- stet|fi- des|sup- ple-|men- tum|sen- su-|um de-|fe- ctu-|i.|A-|men.|
w: o:|pro- ce-|den- ti|ab u-|tro- que|com- par|sit lau-|da- ti-|o.|||
V:3
!p! D4 D4 | D4 C4 | F4 F4 | G8 |"^," A8 | F4 F4 | _B,4 D4 | C6 C2 |"^," F8 |[M:2/2] F4 F4 | F4 F4 | %11
w: Tan- tum|er- go|Sa- cra-|men-|tum|ve- ne-|re- mur|cer- nu-|i:|et an-|ti- quum|
w: Ge- ni-|to- ri,|Ge- ni-|to-|que|laus et|ju- bi-|la- ti-|o,|sa- lus,|ho- nor,|
 G4 D4 | _B,4"^," G,4 |!<(! G4 A4!<)! | F4 D4 |!>(! (G4 C4)!>)! | G8 | C8 | F4 F4 | F4 D4 | %20
w: do- cu-|men- tum|no- vo|ce- dat|ri\- *|tu-|i:|prae- stet|fi- des|
w: vir- tus|quo- que|sit et|be- ne-|di\- *|cti-|o:|pro- ce-|den- ti|
 E4 ^F4 | G4 G,4 | G4 A4 | F4 D4 | A4 A,4 | !fermata!D8 :| G8 | !fermata![D^F]8 |] %28
w: sup- ple-|men- tum|sen- su-|um de-|fe- ctu-|i.|A-|men.|
w: ab u-|tro- que|com- par|sit lau-|da- ti-|o.|||

